X: 40035
T: Three's A Crowd
R: jig
M: 6/8
K: Eminor
|:EB,E G2F/E/|FDF A2G/F/|GEGc2A|BG2 F3|
EB,E G2F/E/|FDF A2G/F/|GEG c2A|GD2 E3:|
|:e2e g2f/e/|fdf a2g/f/|egf edc|Bdc B2B|
e2e g2f/e/|fag f2e/d/|ced cBA|GD2 E3:|

